public/img/contacts/link.svg

<svg width="16" height="16" viewBox="0 0 16 16" fill="none" xmlns="http://www.w3.org/2000/svg">
<path d="M6.22222 2.66667V4.44444H1.77778V14.2222H11.5556V9.77778H13.3333V15.1111C13.3333 15.3469 13.2397 15.573 13.073 15.7397C12.9063 15.9064 12.6802 16 12.4444 16H0.888889C0.653141 16 0.427048 15.9064 0.260349 15.7397C0.0936505 15.573 0 15.3469 0 15.1111V3.55556C0 3.31981 0.0936505 3.09372 0.260349 2.92702C0.427048 2.76032 0.653141 2.66667 0.888889 2.66667H6.22222ZM16 0V7.11111H14.2222V3.03378L7.29511 9.96178L6.03822 8.70489L12.9644 1.77778H8.88889V0H16Z" fill="#607B96"/>
</svg>

<svg width="16" height="16" fill="none" xmlns="http://www.w3.org/2000/svg"><path d="M6.222 2.667v1.777H1.778v9.778h9.778V9.778h1.777v5.333a.889.889 0 01-.889.889H.89a.889.889 0 01-.89-.889V3.556a.889.889 0 01.889-.89h5.333zM16 0v7.111h-1.778V3.034L7.295 9.962 6.038 8.705l6.926-6.927H8.89V0H16z" fill="#607B96"/></svg>
